imagem/cineflip-logo.svg

<svg xmlns="http://www.w3.org/2000/svg" xmlns:bx="https://boxy-svg.com" viewBox="87.919 175.454 344.649 101.297"><g style="stroke:#000;stroke-width:.25mm;fill:#000"><path fill-rule="evenodd" stroke="none" stroke-linecap="round" stroke-width=".945" d="M65.404 54.2h-7.7c-2.333 4.4-5.616 7.933-9.85 10.6-4.233 2.667-8.883 4-13.95 4a25.509 25.509 0 0 1-18.648-7.789 32.365 32.365 0 0 1-.502-.511c-5.166-5.379-7.75-11.846-7.75-19.4 0-7.621 2.584-14.121 7.75-19.5 2.434-2.533 5.284-4.55 8.55-6.05a25.454 25.454 0 0 1 5.15-1.756 20.663 20.663 0 0 1 4.45-.494 35.819 35.819 0 0 1 3.893.201c1.574.172 3.026.455 4.357.849a26.684 26.684 0 0 1 16.277 13.036 32.771 32.771 0 0 1 .173.314h7.7a33.82 33.82 0 0 0-12.4-15.65c-5.706-3.967-12.039-5.95-19-5.95a32.048 32.048 0 0 0-23.473 9.76 40.068 40.068 0 0 0-.627.64c-3.066 3.2-5.466 6.917-7.2 11.15-1.733 4.233-2.6 8.717-2.6 13.45 0 9.516 3.267 17.683 9.8 24.5a33.37 33.37 0 0 0 12.148 8.265A32.995 32.995 0 0 0 33.904 76c6.931 0 13.298-2.017 19.1-6.05 5.744-3.992 9.877-9.242 12.4-15.75Zm179.2-40.7V7h-40.4v68h7V44.3h32.4v-6.6h-32.4V13.5h33.4ZM129.204 75h7V47.5a23.804 23.804 0 0 0-.562-5.323 16.253 16.253 0 0 0-3.438-7.027c-1.333-1.567-2.966-2.8-4.9-3.7-1.46-.68-3.264-1.103-5.41-1.269a28.395 28.395 0 0 0-2.19-.081 15.292 15.292 0 0 0-5.066.819 13.792 13.792 0 0 0-3.234 1.631 18.736 18.736 0 0 0-5.6 6.012V31h-7v44h7V56.6a36.406 36.406 0 0 1 .356-5.254c.263-1.804.673-3.446 1.23-4.929a17.026 17.026 0 0 1 1.564-3.167 13.835 13.835 0 0 1 4.55-4.45 10.797 10.797 0 0 1 2.971-1.213c.88-.223 1.838-.37 2.872-.439a21.672 21.672 0 0 1 1.457-.048c3 0 5.15 1.017 6.45 3.05 1.3 2.033 1.95 4.483 1.95 7.35V75Zm176.8 25V67.487c.393.514.81 1.018 1.25 1.513a21.046 21.046 0 0 0 6.716 5.139A19.934 19.934 0 0 0 322.604 76a19.608 19.608 0 0 0 14.56-6.152 24.993 24.993 0 0 0 .79-.848c4.034-4.529 6.05-9.862 6.05-16s-2.016-11.471-6.05-16a21.046 21.046 0 0 0-6.715-5.139A19.934 19.934 0 0 0 322.604 30a19.608 19.608 0 0 0-14.559 6.152 24.993 24.993 0 0 0-.791.848 26.021 26.021 0 0 0-1.25 1.513V31h-7v69h7Zm-115.3-37.9h-8a16.173 16.173 0 0 1-5.75 4.85c-2.3 1.167-4.716 1.75-7.25 1.75a15.81 15.81 0 0 1-10.2-3.7c-2.992-2.422-4.825-5.522-5.5-9.3h38.7V52a20.84 20.84 0 0 0-6.47-15.232 27.512 27.512 0 0 0-.48-.468c-4.55-4.333-9.9-6.5-16.05-6.5a22.122 22.122 0 0 0-16.038 6.541 26.946 26.946 0 0 0-.212.209 22.127 22.127 0 0 0-6.748 15.954 26.56 26.56 0 0 0-.002.296 22.2 22.2 0 0 0 2.637 10.808A23.039 23.039 0 0 0 153.454 69c2.1 2.067 4.534 3.7 7.3 4.9 2.504 1.086 5.471 1.68 8.902 1.784a36.48 36.48 0 0 0 1.098.016 19.71 19.71 0 0 0 8.306-1.886 25.593 25.593 0 0 0 3.194-1.764c3.767-2.433 6.584-5.75 8.45-9.95Zm70.4 12.9V0h-7v75h7Zm-177.7 0V31h-7v44h7Zm200.2 0V31h-7v44h7Zm53.4-22c0 4.283-1.483 8.016-4.45 11.2a14.447 14.447 0 0 1-10.438 4.789 17.632 17.632 0 0 1-.612.011 14.453 14.453 0 0 1-10.626-4.361 17.505 17.505 0 0 1-.424-.439c-2.966-3.184-4.45-6.917-4.45-11.2 0-4.283 1.484-8.016 4.45-11.2a14.447 14.447 0 0 1 10.438-4.789 17.632 17.632 0 0 1 .612-.011 14.453 14.453 0 0 1 10.626 4.361 17.505 17.505 0 0 1 .424.439c2.967 3.184 4.45 6.917 4.45 11.2Zm-151.7-3.3h-31.2a15.54 15.54 0 0 1 2.1-5.15 18.51 18.51 0 0 1 3.924-4.491 14.758 14.758 0 0 1 9.576-3.259c3.74 0 7.056 1.2 9.95 3.6 2.965 2.459 4.849 5.559 5.65 9.3Zm-102.3-33.9a4.284 4.284 0 0 0-3.092-1.3 5.232 5.232 0 0 0-.058 0 4.285 4.285 0 0 0-3.109 1.26 5.129 5.129 0 0 0-.041.04 4.284 4.284 0 0 0-1.299 3.092 5.232 5.232 0 0 0-.001.058 4.285 4.285 0 0 0 1.26 3.109 5.129 5.129 0 0 0 .04.041 4.284 4.284 0 0 0 3.093 1.3 5.232 5.232 0 0 0 .057 0 4.285 4.285 0 0 0 3.11-1.26 5.129 5.129 0 0 0 .04-.04 4.284 4.284 0 0 0 1.3-3.092 5.232 5.232 0 0 0 0-.058 4.285 4.285 0 0 0-1.259-3.109 5.129 5.129 0 0 0-.041-.041Zm200.2 0a4.284 4.284 0 0 0-3.092-1.3 5.232 5.232 0 0 0-.058 0 4.285 4.285 0 0 0-3.109 1.26 5.129 5.129 0 0 0-.041.04 4.284 4.284 0 0 0-1.299 3.092 5.232 5.232 0 0 0-.001.058 4.285 4.285 0 0 0 1.26 3.109 5.129 5.129 0 0 0 .04.041 4.284 4.284 0 0 0 3.093 1.3 5.232 5.232 0 0 0 .057 0 4.285 4.285 0 0 0 3.11-1.26 5.129 5.129 0 0 0 .04-.04 4.284 4.284 0 0 0 1.3-3.092 5.232 5.232 0 0 0 0-.058 4.285 4.285 0 0 0-1.259-3.109 5.129 5.129 0 0 0-.041-.041Z" font-size="12" style="fill:#fff;stroke-width:0" transform="matrix(1.00189 0 0 1.01297 87.915 175.454)" vector-effect="non-scaling-stroke"/></g><path bx:shape="triangle 220.042 299.393 15.572 17.978 0.5 0.14 1@68f60e59" d="M226.738 301.91q1.09-2.517 2.18 0l5.606 12.944q1.09 2.517-1.09 2.517h-11.212q-2.18 0-1.09-2.517Z" style="stroke:#000;paint-order:fill markers;fill:#ffd500;stroke-width:0;transform-origin:134.091px 214.407px" transform="rotate(90 223.021 109.387)"/></svg>

<?xml version="1.0" encoding="utf-8"?>
<svg viewBox="87.9192 175.4544 344.6485 101.2968" xmlns="http://www.w3.org/2000/svg" xmlns:bx="https://boxy-svg.com">
  <g id="svgGroup" stroke-linecap="round" fill-rule="evenodd" font-size="9pt" stroke="#000" stroke-width="0.25mm" fill="#000" style="stroke: rgb(0, 0, 0); stroke-width: 0.25mm; fill: rgb(0, 0, 0);" transform="matrix(1.0018850564956665, 0, 0, 1.0129679441452026, 87.91523110740232, 175.45439409396636)">
    <path d="M 65.404 54.2 L 57.704 54.2 C 55.371 58.6 52.088 62.133 47.854 64.8 C 43.621 67.467 38.971 68.8 33.904 68.8 A 25.509 25.509 0 0 1 15.256 61.011 A 32.365 32.365 0 0 1 14.754 60.5 C 9.588 55.121 7.004 48.654 7.004 41.1 C 7.004 33.479 9.588 26.979 14.754 21.6 C 17.188 19.067 20.038 17.05 23.304 15.55 A 25.454 25.454 0 0 1 28.454 13.794 A 20.663 20.663 0 0 1 32.904 13.3 A 35.819 35.819 0 0 1 36.797 13.501 C 38.371 13.673 39.823 13.956 41.154 14.35 A 26.684 26.684 0 0 1 57.431 27.386 A 32.771 32.771 0 0 1 57.604 27.7 L 65.304 27.7 A 33.82 33.82 0 0 0 52.904 12.05 C 47.198 8.083 40.865 6.1 33.904 6.1 A 32.048 32.048 0 0 0 10.431 15.86 A 40.068 40.068 0 0 0 9.804 16.5 C 6.738 19.7 4.338 23.417 2.604 27.65 C 0.871 31.883 0.004 36.367 0.004 41.1 C 0.004 50.616 3.271 58.783 9.804 65.6 A 33.37 33.37 0 0 0 21.952 73.865 A 32.995 32.995 0 0 0 33.904 76 C 40.835 76 47.202 73.983 53.004 69.95 C 58.748 65.958 62.881 60.708 65.404 54.2 Z M 244.604 13.5 L 244.604 7 L 204.204 7 L 204.204 75 L 211.204 75 L 211.204 44.3 L 243.604 44.3 L 243.604 37.7 L 211.204 37.7 L 211.204 13.5 L 244.604 13.5 Z M 129.204 75 L 136.204 75 L 136.204 47.5 A 23.804 23.804 0 0 0 135.642 42.177 A 16.253 16.253 0 0 0 132.204 35.15 C 130.871 33.583 129.238 32.35 127.304 31.45 C 125.844 30.77 124.04 30.347 121.894 30.181 A 28.395 28.395 0 0 0 119.704 30.1 A 15.292 15.292 0 0 0 114.638 30.919 A 13.792 13.792 0 0 0 111.404 32.55 A 18.736 18.736 0 0 0 105.804 38.562 L 105.804 31 L 98.804 31 L 98.804 75 L 105.804 75 L 105.804 56.6 A 36.406 36.406 0 0 1 106.16 51.346 C 106.423 49.542 106.833 47.9 107.39 46.417 A 17.026 17.026 0 0 1 108.954 43.25 C 110.121 41.417 111.638 39.933 113.504 38.8 A 10.797 10.797 0 0 1 116.475 37.587 C 117.355 37.364 118.313 37.217 119.347 37.148 A 21.672 21.672 0 0 1 120.804 37.1 C 123.804 37.1 125.954 38.117 127.254 40.15 C 128.554 42.183 129.204 44.633 129.204 47.5 L 129.204 75 Z M 306.004 100 L 306.004 67.487 C 306.397 68.001 306.814 68.505 307.254 69 A 21.046 21.046 0 0 0 313.97 74.139 A 19.934 19.934 0 0 0 322.604 76 A 19.608 19.608 0 0 0 337.164 69.848 A 24.993 24.993 0 0 0 337.954 69 C 341.988 64.471 344.004 59.138 344.004 53 C 344.004 46.862 341.988 41.529 337.954 37 A 21.046 21.046 0 0 0 331.239 31.861 A 19.934 19.934 0 0 0 322.604 30 A 19.608 19.608 0 0 0 308.045 36.152 A 24.993 24.993 0 0 0 307.254 37 A 26.021 26.021 0 0 0 306.004 38.513 L 306.004 31 L 299.004 31 L 299.004 100 L 306.004 100 Z M 190.704 62.1 L 182.704 62.1 C 181.171 64.167 179.254 65.783 176.954 66.95 C 174.654 68.117 172.238 68.7 169.704 68.7 A 15.81 15.81 0 0 1 159.504 65 C 156.512 62.578 154.679 59.478 154.004 55.7 L 192.704 55.7 L 192.704 52 A 20.84 20.84 0 0 0 186.234 36.768 A 27.512 27.512 0 0 0 185.754 36.3 C 181.204 31.967 175.854 29.8 169.704 29.8 A 22.122 22.122 0 0 0 153.666 36.341 A 26.946 26.946 0 0 0 153.454 36.55 A 22.127 22.127 0 0 0 146.706 52.504 A 26.56 26.56 0 0 0 146.704 52.8 A 22.2 22.2 0 0 0 149.341 63.608 A 23.039 23.039 0 0 0 153.454 69 C 155.554 71.067 157.988 72.7 160.754 73.9 C 163.258 74.986 166.225 75.58 169.656 75.684 A 36.48 36.48 0 0 0 170.754 75.7 A 19.71 19.71 0 0 0 179.06 73.814 A 25.593 25.593 0 0 0 182.254 72.05 C 186.021 69.617 188.838 66.3 190.704 62.1 Z M 261.104 75 L 261.104 0 L 254.104 0 L 254.104 75 L 261.104 75 Z M 83.404 75 L 83.404 31 L 76.404 31 L 76.404 75 L 83.404 75 Z M 283.604 75 L 283.604 31 L 276.604 31 L 276.604 75 L 283.604 75 Z M 337.004 53 C 337.004 57.283 335.521 61.016 332.554 64.2 A 14.447 14.447 0 0 1 322.116 68.989 A 17.632 17.632 0 0 1 321.504 69 A 14.453 14.453 0 0 1 310.878 64.639 A 17.505 17.505 0 0 1 310.454 64.2 C 307.488 61.016 306.004 57.283 306.004 53 C 306.004 48.717 307.488 44.984 310.454 41.8 A 14.447 14.447 0 0 1 320.892 37.011 A 17.632 17.632 0 0 1 321.504 37 A 14.453 14.453 0 0 1 332.13 41.361 A 17.505 17.505 0 0 1 332.554 41.8 C 335.521 44.984 337.004 48.717 337.004 53 Z M 185.304 49.7 L 154.104 49.7 C 154.504 47.833 155.204 46.117 156.204 44.55 A 18.51 18.51 0 0 1 160.128 40.059 A 14.758 14.758 0 0 1 169.704 36.8 C 173.444 36.8 176.76 38 179.654 40.4 C 182.619 42.859 184.503 45.959 185.304 49.7 Z M 83.004 15.8 A 4.284 4.284 0 0 0 79.912 14.5 A 5.232 5.232 0 0 0 79.854 14.5 A 4.285 4.285 0 0 0 76.745 15.76 A 5.129 5.129 0 0 0 76.704 15.8 A 4.284 4.284 0 0 0 75.405 18.892 A 5.232 5.232 0 0 0 75.404 18.95 A 4.285 4.285 0 0 0 76.664 22.059 A 5.129 5.129 0 0 0 76.704 22.1 A 4.284 4.284 0 0 0 79.797 23.4 A 5.232 5.232 0 0 0 79.854 23.4 A 4.285 4.285 0 0 0 82.964 22.14 A 5.129 5.129 0 0 0 83.004 22.1 A 4.284 4.284 0 0 0 84.304 19.008 A 5.232 5.232 0 0 0 84.304 18.95 A 4.285 4.285 0 0 0 83.045 15.841 A 5.129 5.129 0 0 0 83.004 15.8 Z M 283.204 15.8 A 4.284 4.284 0 0 0 280.112 14.5 A 5.232 5.232 0 0 0 280.054 14.5 A 4.285 4.285 0 0 0 276.945 15.76 A 5.129 5.129 0 0 0 276.904 15.8 A 4.284 4.284 0 0 0 275.605 18.892 A 5.232 5.232 0 0 0 275.604 18.95 A 4.285 4.285 0 0 0 276.864 22.059 A 5.129 5.129 0 0 0 276.904 22.1 A 4.284 4.284 0 0 0 279.997 23.4 A 5.232 5.232 0 0 0 280.054 23.4 A 4.285 4.285 0 0 0 283.164 22.14 A 5.129 5.129 0 0 0 283.204 22.1 A 4.284 4.284 0 0 0 284.504 19.008 A 5.232 5.232 0 0 0 284.504 18.95 A 4.285 4.285 0 0 0 283.245 15.841 A 5.129 5.129 0 0 0 283.204 15.8 Z" vector-effect="non-scaling-stroke" style="fill: rgb(255, 255, 255); stroke-width: 0px;"/>
  </g>
  <path d="M 226.738 301.91 Q 227.828 299.393 228.918 301.91 L 234.524 314.854 Q 235.614 317.371 233.434 317.371 L 222.222 317.371 Q 220.042 317.371 221.132 314.854 Z" style="stroke: rgb(0, 0, 0); paint-order: fill markers; fill: rgb(255, 213, 0); stroke-width: 0px; transform-origin: 134.091px 214.407px;" transform="matrix(0, 1, -1, 0, 332.407938613085, -113.634109993549)" bx:shape="triangle 220.042 299.393 15.572 17.978 0.5 0.14 1@68f60e59"/>
</svg>
